X: 225
T: Lord Macdonald's Rant
%R: reel
B: "Twenty Four Country Dances for the Year 1793", Preston & Son, eds. p.93
F: http://www.vwml.org/browse/browse-collections-dance-tune-books/browse-prestons1793# 2014-8-7
Z: 2014 John Chambers <jc:trillian.mit.edu>
N: The rhythms are wrong at the strain boundaries; not fixed.
N: The 2nd strain was missing its initial repeat symbol; fixed.
M: C|
L: 1/8
K: G
|:\
d3e dBgB | dBgB aAAB |\
d3e dBgB | A/B/c BA BGG :: B |\
DGBG AGBG |
AGBG AGAB |\
[1 DGBG AGBG | DEDC B,G,G, :|\
[2 BAGF GFED | EGFA BGG |]
% = = = = = = = = = = = = = = = = = = = = = = = = =
%%begintext align
%% The 1st Lady cast off 2 Cu.s her Part.r follow
%% her into the 3d Cu.s place .| the 1st Gent.n
%% cast up his Part.r follow to proper places :|
%% Lead down the middle up again and cast
%% off :|. Allemande :|:
%%endtext
% = = = = = = = = = = = = = = = = = = = = = = = = =

%%sep 1 1 500
%%sep 1 1 500
